32x32/apps/deadbeef.svg

<svg xmlns="http://www.w3.org/2000/svg" width="32" height="32" version="1">
 <rect style="opacity:0.2" width="24.009" height="24.009" x="-12.71" y="11.33" rx="7.203" ry="7.203" transform="rotate(-45)"/>
 <rect style="fill:#4f4f4f" width="24.009" height="24.009" x="-12" y="10.62" rx="7.203" ry="7.203" transform="rotate(-45)"/>
 <path style="opacity:0.2;fill-rule:evenodd" d="m 12,9.0000003 v 8.0000007 l 4.5,-3 4.5,3 -9,6 v 2 l 12,-8 -6,-4 z"/>
 <path style="fill:#79ce24;fill-rule:evenodd" d="M 12,7.9999997 V 16 l 4.5,-3 4.5,3 -9,6 v 2 l 12,-8 -6,-4 z"/>
 <path style="fill:#f4f4f7;opacity:0.1" d="M 16 2 C 14.158855 2 12.31703 2.7044541 10.90625 4.1152344 L 4.1152344 10.90625 C 2.5765725 12.444912 1.883964 14.49582 2.0234375 16.5 C 2.1397271 14.828963 2.8323356 13.189149 4.1152344 11.90625 L 10.90625 5.1152344 C 13.727811 2.2936738 18.272189 2.2936738 21.09375 5.1152344 L 27.884766 11.90625 C 29.167664 13.189149 29.860273 14.828963 29.976562 16.5 C 30.116036 14.49582 29.423427 12.444912 27.884766 10.90625 L 21.09375 4.1152344 C 19.68297 2.7044541 17.841145 2 16 2 z"/>
 <path style="fill:#f4f4f7;fill-rule:evenodd;opacity:0.2" d="M 12 8 L 12 9 L 18 13 L 23.25 16.5 L 24 16 L 18 12 L 12 8 z M 20.25 16.5 L 12 22 L 12 23 L 21 17 L 20.25 16.5 z"/>
</svg>

<svg xmlns="http://www.w3.org/2000/svg" width="32" height="32" version="1"><rect style="opacity:.2" width="24.009" height="24.009" x="-12.71" y="11.33" rx="7.203" ry="7.203" transform="rotate(-45)"/><rect style="fill:#4f4f4f" width="24.009" height="24.009" x="-12" y="10.62" rx="7.203" ry="7.203" transform="rotate(-45)"/><path style="opacity:.2;fill-rule:evenodd" d="M12 9v8l4.5-3 4.5 3-9 6v2l12-8-6-4z"/><path style="fill:#79ce24;fill-rule:evenodd" d="M12 8v8l4.5-3 4.5 3-9 6v2l12-8-6-4z"/><path style="fill:#f4f4f7;opacity:.1" d="M16 2a7.18 7.18 0 0 0-5.094 2.115l-6.79 6.791A7.176 7.176 0 0 0 2.022 16.5a7.173 7.173 0 0 1 2.092-4.594l6.791-6.79a7.189 7.189 0 0 1 10.188 0l6.79 6.79a7.173 7.173 0 0 1 2.093 4.594 7.176 7.176 0 0 0-2.092-5.594l-6.791-6.79A7.18 7.18 0 0 0 16 2z"/><path style="fill:#f4f4f7;fill-rule:evenodd;opacity:.2" d="M12 8v1l6 4 5.25 3.5.75-.5-6-4-6-4zm8.25 8.5L12 22v1l9-6-.75-.5z"/></svg>
